icons/enzyme_fill.svg

<svg width="48" height="48" viewBox="0 0 48 48" fill="none" xmlns="http://www.w3.org/2000/svg">
<path fill-rule="evenodd" clip-rule="evenodd" d="M9.07102 24.9289C5.16578 28.8341 5.16578 35.1658 9.07102 39.071C12.9763 42.9763 19.3079 42.9763 23.2132 39.071L30.435 31.8492L16.2929 17.707L9.07102 24.9289ZM17.7071 16.2928L31.8492 30.435L38.7695 23.5147C42.6747 19.6094 42.6747 13.2778 38.7695 9.37254C34.8643 5.46729 28.5326 5.46729 24.6274 9.37254L17.7071 16.2928ZM30.0681 14.5176C30.354 15.5845 31.4506 16.2177 32.5176 15.9318C33.5845 15.6459 34.2177 14.5492 33.9318 13.4823L35.8636 12.9647C36.4354 15.0985 35.1691 17.2919 33.0352 17.8637C30.9013 18.4354 28.708 17.1691 28.1362 15.0352C27.5645 12.9014 28.8308 10.708 30.9647 10.1363L31.4823 12.0681C30.4154 12.354 29.7822 13.4507 30.0681 14.5176ZM35.8761 18.7168C35.0516 19.9371 33.2761 20.6102 31.323 20.5213C29.3661 20.4322 27.6711 19.599 26.9821 18.354C26.7147 17.8707 26.1062 17.6958 25.623 17.9632C25.1398 18.2306 24.9648 18.8391 25.2322 19.3223C26.387 21.4091 28.8976 22.413 31.232 22.5192C33.5701 22.6256 36.1715 21.852 37.5333 19.8365C37.8425 19.3789 37.7222 18.7573 37.2646 18.4481C36.8069 18.1389 36.1853 18.2592 35.8761 18.7168ZM15.7835 36.567C16.2162 36.567 16.567 36.2162 16.567 35.7835C16.567 35.3508 16.2162 35 15.7835 35L15.7835 33C17.3208 33 18.567 34.2462 18.567 35.7835C18.567 37.3208 17.3208 38.567 15.7835 38.567C14.2462 38.567 13 37.3208 13 35.7835H15C15 36.2162 15.3508 36.567 15.7835 36.567ZM14.0429 27.4962C15.2465 26.6474 17.1452 26.6474 18.9401 27.4229C20.7383 28.1998 22.0279 29.5798 22.2308 30.9881C22.3096 31.5348 22.8166 31.9141 23.3632 31.8353C23.9098 31.7565 24.2891 31.2496 24.2104 30.7029C23.8703 28.3423 21.8785 26.5137 19.7333 25.5869C17.5847 24.6587 14.878 24.4599 12.8902 25.8618C12.4389 26.1801 12.3311 26.8041 12.6494 27.2554C12.9677 27.7067 13.5916 27.8145 14.0429 27.4962ZM17.1376 30.8154C15.9695 30.3275 14.8252 30.3409 14.1744 30.7587C13.7096 31.057 13.091 30.922 12.7927 30.4573C12.4943 29.9925 12.6293 29.3739 13.0941 29.0755C14.5271 28.1557 16.4386 28.356 17.9085 28.9699C19.3685 29.5797 20.8506 30.792 21.1433 32.4382C21.24 32.982 20.8775 33.5012 20.3338 33.5978C19.79 33.6945 19.2708 33.3321 19.1742 32.7883C19.0539 32.1121 18.3157 31.3074 17.1376 30.8154ZM10.5 35C11.3284 35 12 34.3284 12 33.5C12 32.6715 11.3284 32 10.5 32C9.67153 32 8.99995 32.6715 8.99995 33.5C8.99995 34.3284 9.67153 35 10.5 35Z" fill="black"/>
</svg>

<svg
  xmlns="http://www.w3.org/2000/svg"
  width="24"
  height="24"
  viewBox="0 0 24 24"
  fill="none"
  stroke="currentColor"
  stroke-width="2"
  stroke-linecap="round"
  stroke-linejoin="round"
>
  <path
    fill-rule="evenodd"
    d="M9.071 24.929c-3.905 3.905-3.905 10.237 0 14.142s10.237 3.905 14.142 0l7.222-7.222-14.142-14.142zm8.636-8.636L31.85 30.435l6.92-6.92c3.906-3.906 3.906-10.237 0-14.142-3.905-3.906-10.236-3.906-14.142 0zm12.361-1.775a2 2 0 1 0 3.864-1.036l1.932-.517a4 4 0 1 1-4.9-2.829l.518 1.932a2 2 0 0 0-1.414 2.45m5.808 4.199c-.824 1.22-2.6 1.893-4.553 1.804-1.957-.089-3.652-.922-4.34-2.167a1 1 0 1 0-1.75.968c1.154 2.087 3.665 3.091 5.999 3.197 2.338.107 4.94-.667 6.301-2.682a1 1 0 1 0-1.657-1.12m-20.092 17.85a.784.784 0 0 0 0-1.567v-2A2.783 2.783 0 1 1 13 35.783h2c0 .433.35.784.784.784m-1.741-9.07c1.204-.85 3.102-.85 4.897-.074 1.798.777 3.088 2.157 3.29 3.565a1 1 0 1 0 1.98-.285c-.34-2.36-2.332-4.19-4.477-5.116-2.148-.928-4.855-1.127-6.843.275a1 1 0 0 0 1.153 1.634m3.095 3.318c-1.169-.488-2.313-.474-2.964-.056a1 1 0 0 1-1.08-1.683c1.433-.92 3.345-.72 4.815-.106 1.46.61 2.942 1.822 3.234 3.468a1 1 0 1 1-1.969.35c-.12-.676-.858-1.48-2.036-1.973M10.5 35a1.5 1.5 0 1 0 0-3 1.5 1.5 0 0 0 0 3"
    clip-rule="evenodd"
  />
</svg>
